X:40
T:Nine Points of Roguery
S:Bernie Waugh
R:Reel
M:4/4
L:1/8
K:D
|:FE|\
"D"D2F/E/D "G"GEFE|"D"DEFG ABAF|D2F/E/D "Bm"GEFA|"Em"BE~ED B,EGE|
"D"D2F/E/D "G"GEFE|"D"DEFG ABAF|D2FA "A"GAce|"D"d2~dc d2:|
|:AB|\
"C"~=c3A "G"~B3G|"D"A2AB AGFE|D/D/DFD "Bm"GEFA|"Em"BE~ED B,EGB|
"C"~=c3A "G"~B3G|"D"Adcd fdAF|D2FA "A"GAce|"D"d2~dc d2:|
|:fe|\
"D"d2fd "G"gefe|"D"defg abaf|d2fd "Bm"gefa|"Em"beed Bege|
"D"d2fd "G"gefe|"D"defg abaf|dfaf "A"gece|"D"d2~dc d2:|
|:AB|\
"C"~=c3A "G"~B3G|"D"A2AB AGFE|D/D/DFD "Bm"GEFA|"Em"BE~ED B,EGB|
"C"~=c3A "G"~B3G|"D"Adcd fdAF|D2FA "A"GAce|"D"d2~dc d2:|



